X:1
T:Title
%%score { 1 | ( 2 3 ) }
L:1/8
Q:1/4=100
M:4/4
K:A
V:1 treble nm="Grand Piano"
V:2 bass 
V:3 bass 
V:1
 [Ec]2 [Ec][Ec] [Ec]2 [DB][CA] | [DA]2 [DF][EG] [FA]3 [DF] | [CE]2 [CA]2 [Ec]2 [EB][EA] | %3
w: J.~Howard~Entwisle * * * * *|||
 B2 Bc B4 | c2 cd e2 dc | [FB]2 [FB][Fc] [Fd]4 | G2 GA G2 FE | d2 cB [CA]4 | %8
w: |||||
 [DA]2 [DF][FA] [Fd]2 [FA]F | E2 c>c c4 | B2 BB cBAG | [CA]2 [DG]>[DF] [CE]4 | %12
w: ||||
 [DF]2 [EG][FA] [FB]2 [FA][DF] | [CE]2 [EA]B c2 d2 | e2 c>d e2 [EA][FB] | c2 B>B [CA]4 |] %16
w: ||||
V:2
 [A,,A,]2 [A,,A,][A,,A,] [A,,A,]2 [A,,E,][A,,E,] | [D,F,]2 [D,A,][D,A,] [D,D]3 [D,A,] | %2
 [A,,A,]2 [A,,E,]2 [A,,A,]2 [B,,G,][C,A,] | [E,G,E]2 [E,G,E][E,A,E] [E,G,E]4 | %4
 [A,E]2 [A,E][A,B,E] [A,CA]2 [A,B,E][K:bass][A,E] | [D,A,]2 [D,B,][C,^A,] [B,,B,]4 | %6
 [E,B,D]2 [E,B,D][E,B,D] [E,B,D]2 [E,A,D][E,G,] | [E,G,E]2 [E,A,E][E,D] [A,,E,]4 | %8
 [D,F,]2 [D,A,][D,A,] [D,A,]2 [D,A,][D,A,D] | [A,C]2 [A,E]>[A,E] [A,E]4 | %10
 [E,G,E]2 [E,G,E][E,G,E] ED[E,C][E,B,] | [A,,E,]2 [A,,A,]>[A,,A,] [A,,A,]4 | %12
 [D,A,]2 [D,A,][D,A,] [D,A,]2 [D,A,][D,A,] | z4 [A,E]4 | %14
 [A,CE]2 [A,E]>[A,B,E] [A,CE]2 [C,A,][D,A,] | [E,A,E]2 [E,G,D]>[E,G,D] [A,,E,A,]4 |] %16
V:3
 x8 | x8 | x8 | x8 | x7[K:bass] x | x8 | x8 | x8 | x8 | x8 | z4 E,2 z2 | x8 | x8 | %13
 [A,,A,]2 [C,A,][E,G,E] z2 B,2 | x8 | x8 |] %16

